X:0967
T:Mrs Bell's Strathsy.
M:C
L:1/8
Q:1/4=120
N:triplets not printed as such explicitly
I: :: ||
Z:Jack Campin * www.campin.me.uk * 2009
K:D
(3A/B/c/|d>AFA d>AF2|G>BF>d e>EE (3A/B/c/|d>AFD d>AF2|G>BFd/c/ d>DD:|
  e     |defd  gf`ed|B>dF>A BEEe         |defd  gf`ed|Bd`FB    A`DD:|

